**harm	**harte	**timestamp	**phrase	**leadinstrument	**kern
*M12/8	*M12/8	*	*	*	*
*B-:	*B-:	*	*	*	*B-:
1r;	N	0	.	r	1r;
=1	=1	=1	=1	=1	=1
*>A_intro	*>A_intro	*>A_intro	*>A_intro	*>A_intro	*>A_intro
1.I	B-:maj	0.372	newline	organ	1B- 1dd 1ff
=2	=2	=2	=2	=2	=2
1.I	B-:maj	4.342	.	organ	1B- 1dd 1ff
=3	=3	=3	=3	=3	=3
2.V7	F:7	8.313	.	organ	2F 2a 2cc 2ee-
2.I	B-:maj	10.298	.	organ	2B- 2dd 2ff
=4	=4	=4	=4	=4	=4
1.I	B-:maj	12.283	.	organ	1B- 1dd 1ff
1r;	N	16.254	.	r	1r;
=5	=5	=5	=5	=5	=5
*>B_verse	*>B_verse	*>B_verse	*>B_verse	*>B_verse	*>B_verse
1.I	B-:maj	20.225	newline	voice	1B- 1dd 1ff
=6	=6	=6	=6	=6	=6
1.I	B-:maj	24.453	.	voice	1B- 1dd 1ff
=7	=7	=7	=7	=7	=7
1.IV	E-:maj	28.682	.	voice	1E- 1g 1b-
=8	=8	=8	=8	=8	=8
1.IV	E-:maj	32.911	.	voice	1E- 1g 1b-
=9	=9	=9	=9	=9	=9
1.V	F:maj	37.14	newline	voice	1F 1a 1cc
=10	=10	=10	=10	=10	=10
1.IV	E-:maj	41.277	.	voice	1E- 1g 1b-
=11	=11	=11	=11	=11	=11
2.I	B-:maj	45.415	.	voice	2B- 2dd 2ff
2.IV	E-:maj	47.484	.	voice	2E- 2g 2b-
=12	=12	=12	=12	=12	=12
1.I	B-:maj	49.553	.	voice	1B- 1dd 1ff
=13	=13	=13	=13	=13	=13
1.I	B-:maj	53.69	newline	voice	1B- 1dd 1ff
=14	=14	=14	=14	=14	=14
1.Im7	B-:7	57.846	.	voice	1B- 1dd 1ff 1aa
=15	=15	=15	=15	=15	=15
1.IV	E-:maj	62.001	.	voice	1E- 1g 1b-
=16	=16	=16	=16	=16	=16
1.IV	E-:maj	66.157	.	voice	1E- 1g 1b-
=17	=17	=17	=17	=17	=17
1.V	F:maj	70.312	newline	voice	1F 1a 1cc
=18	=18	=18	=18	=18	=18
1.IV	E-:maj	74.462	.	voice	1E- 1g 1b-
=19	=19	=19	=19	=19	=19
2.I	B-:maj	78.611	.	voice	2B- 2dd 2ff
2.IV	E-:maj	80.686	.	voice	2E- 2g 2b-
=20	=20	=20	=20	=20	=20
4.IVc	E-:maj/5	82.761	.	voice	4e- 4g 4B-
4.I	B-:maj	83.798	.	voice	4B- 4dd 4ff
2.I	B-:maj	.	.	voice	2B- 2dd 2ff
=21	=21	=21	=21	=21	=21
*>C_chorus	*>C_chorus	*>C_chorus	*>C_chorus	*>C_chorus	*>C_chorus
1.I	B-:maj	86.91	newline	voice	1B- 1dd 1ff
=22	=22	=22	=22	=22	=22
1.III	D:maj	91.076	.	voice	1D 1f# 1a
=23	=23	=23	=23	=23	=23
1.IV	E-:maj	95.242	.	voice	1E- 1g 1b-
=24	=24	=24	=24	=24	=24
1.#ivo	E:dim	99.408	.	voice	1E 1g 1b-
=25	=25	=25	=25	=25	=25
2.Ic	B-:maj/5	103.574	newline	voice	2b- 2dd 2F
2.vi7	G:min7	105.629	.	voice	2G 2b- 2dd 2ff
=26	=26	=26	=26	=26	=26
2.ii7	C:min7	107.684	.	voice	2C 2e- 2g 2b-
2.V7	F:7	109.738	.	voice	2F 2a 2cc 2ee-
=27	=27	=27	=27	=27	=27
2.I	B-:maj	111.793	.	voice	2B- 2dd 2ff
2.IV	E-:maj	113.848	.	voice	2E- 2g 2b-
=28	=28	=28	=28	=28	=28
2.I	B-:maj	115.902	.	voice	2B- 2dd 2ff
2.V7	F:7	117.957	.	voice	2F 2a 2cc 2ee-
=29	=29	=29	=29	=29	=29
2.I	B-:maj	120.012	newline	voice	2B- 2dd 2ff
2.vi7	G:min7	122.041	.	voice	2G 2b- 2dd 2ff
=30	=30	=30	=30	=30	=30
2.ii7	C:min7	124.07	.	voice	2C 2e- 2g 2b-
2.V7	F:7	126.099	.	voice	2F 2a 2cc 2ee-
=31	=31	=31	=31	=31	=31
2.I	B-:maj	128.128	.	voice	2B- 2dd 2ff
2.IV	E-:maj	130.157	.	voice	2E- 2g 2b-
=32	=32	=32	=32	=32	=32
2.I	B-:maj	132.186	.	voice	2B- 2dd 2ff
2.V7	F:7	134.215	.	voice	2F 2a 2cc 2ee-
=33	=33	=33	=33	=33	=33
*>C2_outro	*>C2_outro	*>C2_outro	*>C2_outro	*>C2_outro	*>C2_outro
2.I	B-:maj	136.245	newline	voice	2B- 2dd 2ff
2.vi7	G:min7	138.253	.	voice	2G 2b- 2dd 2ff
=34	=34	=34	=34	=34	=34
2.ii7	C:min7	140.261	.	voice	2C 2e- 2g 2b-
2.V7	F:7	142.269	.	voice	2F 2a 2cc 2ee-
=35	=35	=35	=35	=35	=35
2.I	B-:maj	144.277	.	voice	2B- 2dd 2ff
2.IV	E-:maj	146.285	.	voice	2E- 2g 2b-
=36	=36	=36	=36	=36	=36
4.I	B-:maj	148.293	.	voice	4B- 4dd 4ff
4.vi	G:min	149.297	.	voice	4G 4b- 4dd
2.V7	F:7	150.301	.	voice	2F 2a 2cc 2ee-
=37	=37	=37	=37	=37	=37
*>_fadeout	*>_fadeout	*>_fadeout	*>_fadeout	*>_fadeout	*>_fadeout
2.I	B-:maj	152.309	newline	voice	2B- 2dd 2ff
2.vi7	G:min7	154.35	.	voice	2G 2b- 2dd 2ff
=38	=38	=38	=38	=38	=38
2.ii7	C:min7	156.392	.	voice	2C 2e- 2g 2b-
2.V7	F:7	158.433	.	voice	2F 2a 2cc 2ee-
=39	=39	=39	=39	=39	=39
2.I	B-:maj	160.475	.	voice	2B- 2dd 2ff
2.IV	E-:maj	162.516	.	voice	2E- 2g 2b-
=40	=40	=40	=40	=40	=40
4.I	B-:maj	164.558	.	voice	4B- 4dd 4ff
4.vi	G:min	165.578	.	voice	4G 4b- 4dd
2.V7	F:7	166.599	.	voice	2F 2a 2cc 2ee-
=41	=41	=41	=41	=41	=41
1.I	B-:maj	168.64	newline	voice	1B- 1dd 1ff
1r;	N	170.527	.	r	1r;
1r;	N	173.714	.	r	1r;
*-	*-	*-	*-	*-	*-
!!!OTL: Stop The Wedding
!!!COC: Etta James
!!!BillboardChartDate: 1962/08/25
!!!BillboardPeak: 34
!!!BillboardWeeksOnChart: 8
!!!SampleTargetRank: 44
!!!SampleActualRank: 44
!!!SampleID#: 0127
!!!RDF**harmony: **recip + pitch class of root + harmonic quality
!!!RDF**harte: Chris Harte's syntax, used by MIREX
!!!RDF**phrase: newline = linebreak in original McGill transcription
!!!RDF**timestamp: McGill audio timestamp in seconds
!!!RDF**leadinstrument: original McGill primary instrumentation annotation
!!!RDT: 2017/01/12/
!!!ENC: Nathaniel Condit-Schultz
!!!EST: Awating manual error checking and editing.
